X:1
T:John J. Curtis
M:6/8
L:1/4
K:F
 c/2| A A/2 F F/2| B/2 B- B B/2| A A/2 F A/2| G3/2- G c/4c/4| A A/2 F F/2|\
 B/2 B- B d/2| c c/2 B G/2| F3/2- F/2 z/2 c/2| A A/2 F F/2| B/2 B- B B/2|\
 A A/2 F A/2| G3/2- G c/4c/4| A A/2 F F/2| B/2 B d d/2| c c/2B/2 G|\
 F3/2- F||
